!!!COM: Mozart, Wolfgang Amadeus
!!!OTL: String Quartet No. 14 in G Major ("Spring")
!!!OMD: Andante cantabile
!!!OMV: 3
!!!SCT1: K<sup>1</sup> 387
!!!SCA: Chronologisch-thematisches Verzeichnis sämtlicher Tonwerke Wolfgang Amade Mozarts (L. von Köchel; 1862, 2/1905, 3/1937, 1947)
!!!SCT2: K<sup>6</sup> 387
!!!YOR: Breitkopf & Härtel Edition
!!!ENC: Frances Bennion
!!!CDT: 1756/1/27/-1791/12/5/
!!!OCY: Österreich
!!!YEC: Copyright (c) 1994, 2000 Center for Computer Assisted Research in the Humanities
!!!YEM: Rights to all derivative editions reserved.
!!!YEM: Refer to licensing agreement for further details.
!!!YEN: United States of America
**kern	**kern	**kern	**kern
*k[]	*k[]	*k[]	*k[]
*C:	*C:	*C:	*C:
*clefC	*clefF	*clefG	*clefG
*M3/4	*M3/4	*M3/4	*M3/4
2r	2r	2r	2r
4r	4r	4r	8.g
.	.	.	16cc
=1	=1	=1	=1
8CC	8r	8r	4cc
8C	4c	4e 4G	.
8C	.	.	4r
8C	4c	4e 4G	.
8C	.	.	8.cc
8C	8c	8e 8G	.
.	.	.	16ee
=2	=2	=2	=2
8CC	8r	8r	4ee
8C	4c	4e 4G	.
8C	.	.	4r
8C	4c	4e 4G	.
8C	.	.	8.ee
8C	8c	8e 8G	.
.	.	.	16gg
=3	=3	=3	=3
8CC	8r	8r	2gg
8C	4c	4e 4G	.
8C	.	.	.
8C	4c	4e 4G	.
8C	.	.	16ff
.	.	.	16ee
8C	8e	8g	16dd
.	.	.	16cc
=4	=4	=4	=4
4G	8g	4b	8ee
.	8f	.	8dd
4C	4e	8cc	8cc
.	.	8g	8b
4r	4r	8f	8a
.	.	8e	8g
=5	=5	=5	=5
4F	4.c	8.e	8.g
.	.	32g	32b
.	.	32f	32a
4C	.	8e	8g
.	8G	8c	8e
4r	8G	8c	8e
.	8G	8c	8e
=6	=6	=6	=6
4GG	8.G	8.c	8.e
.	16B	32e	32g
.	.	32d	32f
4C	8c	8c	4e
.	8G 8E	8c	.
4r	8G 8E	8c	4r
.	8G 8E	8c	.
=7	=7	=7	=7
4GG	8.G 8.E	8.c	2.r
.	16F	32e	.
.	.	32d	.
8CC	4E	4c	.
8C	.	.	.
8C	4r	4r	.
8C	.	.	.
=8	=8	=8	=8
8C	[3..D	4.A	4.r
8FF#	.	.	.
2FF#	.	.	.
.	.	8B	8a
.	.	[4c	8a
.	24D]	.	.
.	8E	.	8a
=9	=9	=9	=9
2GG	2F	4c]	8a
.	.	.	8d
.	.	8.B	8d
.	.	.	8g
.	.	16A	.
4CC	8.E	8.G	8g
.	.	.	8g
.	16D	16A	.
=10	=10	=10	=10
4.FF	8C	4B-	8g
.	16D	.	8c
.	16E	.	.
.	8F	8A	4c
16.F	8A	8ff	.
32E	.	.	.
8D	8B	8ff	4r
8C	8c	8ff	.
=11	=11	=11	=11
4BB	4.d 4.G	16gg	4.r
.	.	16ff	.
.	.	16ee	.
.	.	16dd	.
2F	.	16cc	.
.	.	16b	.
.	16c	16a	8gg
.	16B	16g	.
.	16c	16a	8gg
.	16A	16cc	.
.	16d	16b	8gg
.	16B	16dd	.
=12	=12	=12	=12
4E	4c	8cc	16aa
.	.	.	16gg
.	.	8g	16ff
.	.	.	16ee
4A	4e	8r	8dd
.	.	8c	[12..cc
4G	8g	8e	.
.	.	.	96cc]
.	.	.	32dd
.	.	.	32ee
.	.	.	32ff
.	8e	8cc	32gg
.	.	.	32aa
.	.	.	32bb
.	.	.	32ccc
=13	=13	=13	=13
8F	8d	8cc	32bb
.	.	.	32aa
.	.	.	32gg#
.	.	.	32aa
8r	8r	8r	32gg#
.	.	.	32aa
.	.	.	32gg
.	.	.	32ff
8G	8e	8cc	32ee
.	.	.	32gg
.	.	.	32ff#
.	.	.	32gg
8r	8r	8r	32ff#
.	.	.	32gg
.	.	.	32aa
.	.	.	32gg
8GG	8f	8b	16gg
.	.	.	16ff
8r	8r	8r	16ee
.	.	.	16dd
=14	=14	=14	=14
24CC	8e	8cc	8cc
24EE	.	.	.
24FF	.	.	.
24GG	6r	4.r	3..r
24AA	.	.	.
24BB	.	.	.
8C	.	.	.
.	24E	.	.
.	24F	.	.
4.r	24G	.	.
.	24A	.	.
.	24B	.	.
.	8c	24r	.
.	.	24e	.
.	.	24f	.
.	8r	24g	.
.	.	24a	.
.	.	24b	24r
=15	=15	=15	=15
24C	4e	2.cc	4gg
24E	.	.	.
24F	.	.	.
24G	.	.	.
24A	.	.	.
24B	.	.	.
24c	8g	.	8ee
24B	.	.	.
24c	.	.	.
24G	8e	.	8gg
24F#	.	.	.
24G	.	.	.
24E	8c	.	8gg
24D	.	.	.
24E	.	.	.
24C	8e	.	8gg
24BB	.	.	.
24C	.	.	.
=16	=16	=16	=16
24BB	4d	2.dd	4gg
24D	.	.	.
24E	.	.	.
24F#	.	.	.
24G	.	.	.
24A	.	.	.
24B	8g	.	8dd
24A	.	.	.
24B	.	.	.
24G	8b	.	8gg
24F#	.	.	.
24G	.	.	.
24D	8B	.	8gg
24C	.	.	.
24D	.	.	.
24BB	8d	.	8gg
24AA	.	.	.
24BB	.	.	.
=17	=17	=17	=17
24AA	4e	[3cc	4gg
24C	.	.	.
24E	.	.	.
24A	.	.	.
24c	.	.	.
24B	.	.	.
24A	2d	.	16.ff#
24B	.	.	.
24G	.	96cc]	.
.	.	32b	32gg
24F#	.	16.a	16.aa
24G	.	.	.
24E	.	.	.
.	.	32g	32bb
24D	.	8f#	8ccc
24A	.	.	.
24G	.	.	.
24F#	.	8a	8cc
24E	.	.	.
24D	.	.	.
=18	=18	=18	=18
24GG	4.d	4a	4cc
24BB	.	.	.
24C	.	.	.
24D	.	.	.
24E	.	.	.
24F#	.	.	.
24G	.	8g	4b
24F#	.	.	.
24G	.	.	.
24D	8G	8B	.
24C	.	.	.
24D	.	.	.
24BB	8B	8d	4r
24AA	.	.	.
24BB	.	.	.
24GG	8d	8f	.
24FF#	.	.	.
24GG	.	.	.
=19	=19	=19	=19
8C	8c	8e 8G	16c
.	.	.	32d
.	.	.	32e
4.r	4.r	4.r	32f
.	.	.	32g
.	.	.	32a
.	.	.	32b
.	.	.	32cc
.	.	.	32g
.	.	.	32ee
.	.	.	32cc
.	.	.	32gg
.	.	.	32ee
.	.	.	32ccc
.	.	.	32gg
8C	8c	8g	32eee
.	.	.	32ddd
.	.	.	32ccc
.	.	.	32bb
8r	8r	8r	32aa
.	.	.	32gg
.	.	.	32ff#
.	.	.	32ee
=20	=20	=20	=20
8BB	8d	8g	16dd
.	.	.	32ee
.	.	.	32ff#
4.r	4.r	4.r	32gg
.	.	.	32aa
.	.	.	32bb
.	.	.	32ccc
.	.	.	32ddd
.	.	.	32aa#
.	.	.	32bb
.	.	.	32ff#
.	.	.	32gg
.	.	.	32cc#
.	.	.	32dd
.	.	.	32a#
8B	8d	8g	32b
.	.	.	32f#
.	.	.	32g
.	.	.	32d
8r	8r	8r	32g
.	.	.	32b
.	.	.	32ee
.	.	.	32dd
=21	=21	=21	=21
8A	8d	8f#	32dd
.	.	.	32cc
.	.	.	32b
.	.	.	32cc
8r	8r	8r	32cc
.	.	.	32ee
.	.	.	32aa
.	.	.	32gg
8d	8a	8cc	32gg
.	.	.	32ff#
.	.	.	32ccc
.	.	.	32bb
8r	8r	8r	32bb
.	.	.	32aa
.	.	.	32aa
.	.	.	32gg
8D	8d 8c	8a 8f#	32gg
.	.	.	32ff#
.	.	.	32ff#
.	.	.	32ee
8r	8r	8r	32ee
.	.	.	32dd
.	.	.	32dd
.	.	.	32cc
=22	=22	=22	=22
8r	8r	8r	16cc
.	.	.	16b
8GG	8G	8d	[2b
8G	8d	8g	.
8G	8d	8g	.
8G	8d	8g	.
8G	8d	8g	8b]
=23	=23	=23	=23
8r	8r	8r	2.b-
8EE-	8G	8e-	.
8E-	8e-	8g	.
8E-	8e-	8g	.
8E-	8e-	8g	.
8E-	8e-	8g	.
=24	=24	=24	=24
8C	8c	8e-	16.a
.	.	.	96b-
.	.	.	96a
.	.	.	96g
4.r	4.r	4.r	16.a
.	.	.	32b-
.	.	.	8cc
.	.	.	8r
8D	8A	8c	8f#
8r	8r	8r	8r
=25	=25	=25	=25
4GG	4G	4B-	4g
2r	2r	8r	2r
.	.	8dd	.
.	.	8dd	.
.	.	8dd	.
=26	=26	=26	=26
2F#	4.r	24dd	2.r
.	.	24cc#	.
.	.	24a	.
.	.	24dd	.
.	.	24cc#	.
.	.	24a	.
.	.	24dd	.
.	.	24cc	.
.	.	24a	.
.	8d	24dd	.
.	.	24cc	.
.	.	24a	.
4G	8d	24b-	.
.	.	24dd	.
.	.	24cc	.
.	8d	24b-	.
.	.	24a	.
.	.	24g	.
=27	=27	=27	=27
2.D	24d	8f#	4.r
.	24c#	.	.
.	24A	.	.
.	24d	8a	.
.	24c#	.	.
.	24A	.	.
.	24d	8r	.
.	24c	.	.
.	24A	.	.
.	24d	8f#	8ddd
.	24c	.	.
.	24A	.	.
.	24B-	8.g	8ddd
.	24d	.	.
.	24c	.	.
.	24B-	.	8ddd
.	24A	.	.
.	.	32a	.
.	24G	.	.
.	.	32b-	.
=28	=28	=28	=28
2.DD	8F#	8a	24ddd
.	.	.	24ccc#
.	.	.	24aa
.	8A	4f#	24ddd
.	.	.	24ccc#
.	.	.	24aa
.	8r	.	24ddd
.	.	.	24ccc
.	.	.	24aa
.	8F#	4d	24ddd
.	.	.	24ccc
.	.	.	24aa
.	8G	.	24bb-
.	.	.	24ddd
.	.	.	24ccc
.	8B-	8dd	24bb-
.	.	.	24aa
.	.	.	24gg
=29	=29	=29	=29
24d	24d	24dd	24dd
24c#	24c#	24cc#	24cc#
24A	24A	24a	24a
24d	24d	24dd	24dd
24c#	24c#	24cc#	24cc#
24A	24A	24a	24a
24d	24d	24dd	24dd
24c	24c	24cc	24cc
24A	24A	24a	24a
24d	24d	24dd	24dd
24c	24c	24cc	24cc
24A	24A	24a	24a
24B-	24B-	24b-	24b-
24d	24d	24dd	24dd
24c	24c	24cc	24cc
24B-	24B-	24b-	24b-
24A	24A	24a	24a
24G	24G	24g	24g
=30	=30	=30	=30
8.c#	8.c#	8.cc#	8.cc#
16d	16d	16dd	16dd
4D	4D	4d	4d
4r	4r	4r	8.d
.	.	.	16d
=31	=31	=31	=31
8r	8r	8r	8d
8BB	4G	4d	8g
8BB	.	.	8r
8BB	4G	4d	8g
8BB	.	.	8b
8BB	8G	8d	8g
=32	=32	=32	=32
8r	8r	8r	4f#
8C	4G	4c	.
8C	.	.	8e
8C	4G	4c	8r
8C	.	.	8.e
8C	8G	8c	.
.	.	.	16e
=33	=33	=33	=33
8r	8r	8r	[6..e
8C	4A	4c	.
8C	.	.	.
.	.	.	48e]
.	.	.	32f#
.	.	.	32g#
8C	4c	4e	32a
.	.	.	32g#
.	.	.	32b
.	.	.	32a
8AA	.	.	32cc
.	.	.	32b
.	.	.	32dd
.	.	.	32cc
8AA	8c	8e	32dd#
.	.	.	32ee
.	.	.	32cc
.	.	.	32a
=34	=34	=34	=34
8r	8r	8r	8.g
8DD	4A	4d	.
.	.	.	32a
.	.	.	32g
8D	.	.	8f#
8D	8F#	8d	8r
8C	8A	8f#	8.dd
8C	8f#	8a	.
.	.	.	16dd
=35	=35	=35	=35
8r	8r	8r	16dd
.	.	.	16gg
8BB	8g	8b	16r
.	.	.	16dd
8r	8r	8r	16dd
.	.	.	16aa
8AA	8f#	8cc	16r
.	.	.	16dd
8r	8r	8r	16dd
.	.	.	16bb
8GG	8g	8b	16r
.	.	.	16dd
=36	=36	=36	=36
2.FF#	2.a 2.d	2.cc 2.d	16r
.	.	.	16dd
.	.	.	16ddd
.	.	.	16ccc
.	.	.	16aa
.	.	.	16ff#
.	.	.	16dd
.	.	.	16cc
.	.	.	16a
.	.	.	16f#
.	.	.	16d
.	.	.	16dd
=37	=37	=37	=37
8r	8r	8r	16dd
.	.	.	8gg
8B	8d	8dd	.
.	.	.	8dd
16A	16f#	16cc	.
16r	16r	16r	8aa
8A	8f#	8cc	.
.	.	.	8dd
16G	16g	16b	.
16r	16r	16r	8bb
8G	8g	8b	.
.	.	.	[16dd
=38	=38	=38	=38
16F#	16d	16a	16dd]
2r	2r	2r	32ccc
.	.	.	32bb
.	.	.	32ddd
.	.	.	32ccc
.	.	.	32bb
.	.	.	32aa
.	.	.	32gg
.	.	.	32ff#
.	.	.	32aa
.	.	.	32gg
.	.	.	32bb
.	.	.	32aa
.	.	.	32gg
.	.	.	32ff#
.	.	.	32ee
.	.	.	32dd
8.r	8.r	8.r	32ff#
.	.	.	32ee
.	.	.	32dd
.	.	.	32cc
.	.	.	32b
.	.	.	32a
=39	=39	=39	=39
8G	8B	8f	[2.g
8G	8B	8f	.
8C	8c	8e-	.
8C	8c	8e-	.
8BB-	8G	8d	.
8BB-	8G	8d	.
=40	=40	=40	=40
8AA	8A	8c#	4g]
8AA	8A	8c#	.
8D#	8A	8c	4f#
8D#	8A	8c	.
8E	8G	8B	4g
8E	8G	8B	.
=41	=41	=41	=41
8r	8r	8r	8.a
8C	8e	8g	.
.	.	.	32b
.	.	.	32cc
8r	8r	8r	16ee
.	.	.	8dd
8D	8B	8g	.
.	.	.	32cc
.	.	.	32b
8r	8r	8r	16b
.	.	.	8a
8D	8c	8d	.
.	.	.	32g
.	.	.	32f#
=42	=42	=42	=42
8G	8B	8d	8g
8D	8d	16.f#	16.a
.	.	64g	64b
.	.	64a	64cc
8GG	8d	8g	8b
4r	16.a	16.cc	4.r
.	64b	64dd	.
.	64cc	64ee	.
.	8b	8dd	.
16.D	8r	8r	.
64E	.	.	.
64F#	.	.	.
=43	=43	=43	=43
8G	8r	4.r	[2.gg
8F	16.G	.	.
.	64A	.	.
.	64B	.	.
8E	4c	.	.
8E	.	16.c	.
.	.	64d	.
.	.	64e	.
8D	8B	4f	.
8D	16.g	.	.
.	64a	.	.
.	64b	.	.
=44	=44	=44	=44
8C	4cc	4e	8.gg]
8C	.	.	.
.	.	.	32aa
.	.	.	32bb
8AA	4f#	8d	4ccc
8AA	.	16.dd	.
.	.	64ee	.
.	.	64ff#	.
8GG	8r	4gg	4bb
8GG	16.b	.	.
.	64cc	.	.
.	64dd	.	.
=45	=45	=45	=45
8C	8cc	8ee	16aa
.	.	.	16eee
8r	8r	8r	16ccc
.	.	.	16aa
8D	8b	8dd	16gg
.	.	.	16ddd
8r	8r	8r	16bb
.	.	.	16gg
8D	8a	8cc	16ff#
.	.	.	16ccc
8r	8r	8r	16aa
.	.	.	16ff#
=46	=46	=46	=46
24GG	8g	8b	8gg
24BB	.	.	.
24C	.	.	.
24D	6r	4r	16.ggg
24E	.	.	.
24F#	.	.	.
.	.	.	64fff#
.	.	.	64eee
8G	.	.	6..ddd
.	24B	.	.
.	24c	.	.
4r	24d	16.gg	.
.	24e	.	.
.	24f#	.	.
.	.	64ff#	.
.	.	64ee	.
.	24g	[4dd	.
.	24a	.	24ccc
.	24b	.	24bb
16.DD	8cc	.	24aa
.	.	.	24gg
.	.	.	24aa
64EE	.	.	.
64FF#	.	.	.
=47	=47	=47	=47
8GG	24b	8dd]	8gg
.	24B	.	.
.	24c	.	.
6r	24d	16.gg	4r
.	24e	.	.
.	24f#	.	.
.	.	64ff#	.
.	.	64ee	.
.	8g	6..dd	.
24BB	.	.	.
24C	.	.	.
24D	4r	.	16.g
24E	.	.	.
24F#	.	.	.
.	.	.	64f#
.	.	.	64e
24G	.	.	[4d
24A	.	24cc	.
24B	.	24b	.
8c	16.D	24a	.
.	.	24g	.
.	.	24a	.
.	64E	.	.
.	64F#	.	.
=48	=48	=48	=48
8B	8G	8g	8d]
8r	8r	8r	8r
8GG	8d	8b	8gg
3r	3r	3r	3r
96r	96r	96r	96r
32G	32B	32d	32g
=49	=49	=49	=49
8F	8B	8d	8a-
8r	8r	8r	8r
8FF	8b	8dd	8aa-
3r	3r	3r	3r
96r	96r	96r	96r
32F	32B	32d	32a-
=50	=50	=50	=50
8E-	8c	8e-	8g
8r	8r	8r	8r
8EE-	8g	8cc	8gg
3r	3r	3r	4.r
96r	96r	96r	.
32E-	32c	32g	.
=51	=51	=51	=51
8D	8c	8f	2r
8r	8r	8r	.
8GG	8B	8ff	.
4.r	4.r	4.r	.
.	.	.	8.g
.	.	.	16cc
=52	=52	=52	=52
8CC	8r	8r	4cc
8C	4c	4e 4G	.
8C	.	.	4r
8C	4c	4e 4G	.
8C	.	.	8.cc
8C	8c	8e 8G	.
.	.	.	16ee
=53	=53	=53	=53
8CC	8r	8r	4ee
8C	4c	4e 4G	.
8C	.	.	4r
8C	4c	4e 4G	.
8C	.	.	8.ee
8C	8c	8e 8G	.
.	.	.	16gg
=54	=54	=54	=54
8CC	8r	8r	2gg
8C	4c	4e 4G	.
8C	.	.	.
8C	4c	4e 4G	.
8C	.	.	16ff
.	.	.	16ee
8C	8e	8g	16dd
.	.	.	16cc
=55	=55	=55	=55
4G	8g	4b	8ee
.	8f	.	8dd
4C	4e	8cc	8cc
.	.	8g	8b
4r	4r	8f	8a
.	.	8e	8g
=56	=56	=56	=56
4F	4.c	8.e	8.g
.	.	32g	32b
.	.	32f	32a
4C	.	8e	8g
.	8G	8c	8e
4r	8G	8c	8e
.	8G	8c	8e
=57	=57	=57	=57
4GG	8.G	8.c	8.e
.	16B	32e	32g
.	.	32d	32f
4C	8c	8c	4e
.	8G 8E	8c	.
4r	8G 8E	8c	4r
.	8G 8E	8c	.
=58	=58	=58	=58
4GG	8.G 8.E	8.c	2.r
.	16F	32e	.
.	.	32d	.
8CC	4E	4c	.
8C	.	.	.
8C	4r	4r	.
8C	.	.	.
=59	=59	=59	=59
8C	4.r	4.r	4.r
8FF#	.	.	.
4FF#	.	.	.
.	8F#	8c	8dd
4r	8F#	8c	8dd
.	8F#	8c	8dd
=60	=60	=60	=60
4.r	8F#	8c	8dd
.	8G	8B	8g
.	4G	4B-	4g
8BB-	.	.	.
8BB-	4r	4r	4r
8BB-	.	.	.
=61	=61	=61	=61
8BB-	4.r	4.r	4.r
8EE	.	.	.
4EE	.	.	.
.	8E	8B-	8cc
4r	8E	8B-	8cc
.	8E	8B-	8cc
=62	=62	=62	=62
4.r	8E	8B-	8cc
.	8F	8A	8f
.	4F	4A-	4f
8AA-	.	.	.
8AA-	4r	4r	4r
8AA-	.	.	.
=63	=63	=63	=63
8AA-	2.d-	2.f	4.r
8DD-	.	.	.
2DD-	.	.	.
.	.	.	8a-
.	.	.	8a-
.	.	.	8a-
=64	=64	=64	=64
4CC	2.e-	2.g-	8a-
.	.	.	8gg-
2C	.	.	8gg-
.	.	.	8a-
.	.	.	8a-
.	.	.	8a-
=65	=65	=65	=65
4D-	2.d-	2.f	8a-
.	.	.	8ff
2DD-	.	.	8ff
.	.	.	8a-
.	.	.	8a-
.	.	.	8a-
=66	=66	=66	=66
4CC	2.e-	[2.g-	8a
.	.	.	8gg-
2C	.	.	8gg-
.	.	.	8a
.	.	.	8a
.	.	.	8a
=67	=67	=67	=67
4C-	[2.e-	2.g-_	8a
.	.	.	8gg-
2c-	.	.	8gg-
.	.	.	8a
.	.	.	8a
.	.	.	8a
=68	=68	=68	=68
4B-	2.e-_	2.g-]	8b-
.	.	.	8gg-
2BB-	.	.	8gg-
.	.	.	8b-
.	.	.	8b-
.	.	.	8b-
=69	=69	=69	=69
4AA-	4.e-]	2.f#	8cc
.	.	.	8ff#
2A-	.	.	8ff#
.	8c	.	8ee-
.	8B	.	8dd
.	8c	.	8cc
=70	=70	=70	=70
24GG	4.d	4.g	4.b
24BB	.	.	.
24D	.	.	.
24G	.	.	.
24B	.	.	.
24A	.	.	.
24G	.	.	.
24F#	.	.	.
24G	.	.	.
24D	8G	8B	8gg
24C	.	.	.
24D	.	.	.
24BB	8B	8d	8gg
24AA	.	.	.
24BB	.	.	.
24GG	8d	8f	8gg
24FF#	.	.	.
24GG	.	.	.
=71	=71	=71	=71
24C	4c	4e-	4gg
24E-	.	.	.
24G	.	.	.
24c	.	.	.
24e-	.	.	.
24d	.	.	.
24c	8e-	8g	8ee-
24B	.	.	.
24c	.	.	.
24G	8e-	8cc	8gg
24F#	.	.	.
24G	.	.	.
24E-	8G	8c	8gg
24D	.	.	.
24E-	.	.	.
24C	8c	8e-	8gg
24BB	.	.	.
24C	.	.	.
=72	=72	=72	=72
24GG	4.B	4.d	4gg
24BB	.	.	.
24D	.	.	.
24G	.	.	.
24B	.	.	.
24A	.	.	.
24G	.	.	8g
24F#	.	.	.
24G	.	.	.
24D	8G	8B	8gg
24C	.	.	.
24D	.	.	.
24BB	8B	8d	8gg
24AA	.	.	.
24BB	.	.	.
24GG	8d	8f	8gg
24FF#	.	.	.
24GG	.	.	.
=73	=73	=73	=73
24C	4c	4e-	4gg
24E-	.	.	.
24G	.	.	.
24c	.	.	.
24e-	.	.	.
24d	.	.	.
24c	8e-	8g	8ee-
24B	.	.	.
24c	.	.	.
24G	8e-	8cc	8gg
24F#	.	.	.
24G	.	.	.
24E-	8G	8c	8gg
24D	.	.	.
24E-	.	.	.
24C	8c	8e-	8gg
24BB	.	.	.
24C	.	.	.
=74	=74	=74	=74
4GG	4B	4d	16g
.	.	.	32a
.	.	.	32b
.	.	.	32cc
.	.	.	32dd
.	.	.	32ee
.	.	.	32ff#
4r	4r	8r	16gg
.	.	.	32aa
.	.	.	32bb
.	.	8gg	32ccc
.	.	.	32ddd
.	.	.	32eee
.	.	.	32fff#
4B	4d	8gg	32ggg
.	.	.	32fff#
.	.	.	32eee
.	.	.	32ddd
.	.	8gg	32ccc
.	.	.	32bb
.	.	.	32aa
.	.	.	32gg
=75	=75	=75	=75
4c#	4e	8gg	32bb
.	.	.	32aa
.	.	.	32gg#
.	.	.	32aa
.	.	8a	32gg#
.	.	.	32aa
.	.	.	32gg#
.	.	.	32aa
4d	4f	8a	32aa
.	.	.	32ccc#
.	.	.	32ddd
.	.	.	32ccc#
.	.	8ff	32ddd
.	.	.	32eee
.	.	.	32fff
.	.	.	32eee
4c	4e	8ff	32fff
.	.	.	32eee
.	.	.	32ddd
.	.	.	32eee
.	.	8ff	32ddd
.	.	.	32ccc
.	.	.	32bb
.	.	.	32aa
=76	=76	=76	=76
4B	4d	8ff	32aa
.	.	.	32gg
.	.	.	32ff#
.	.	.	32gg
.	.	8g	32ff#
.	.	.	32gg
.	.	.	32aa
.	.	.	32gg
4c	4e	8g	32gg
.	.	.	32bb
.	.	.	32ccc
.	.	.	32bb
.	.	8ee	32ccc
.	.	.	32ddd#
.	.	.	32eee
.	.	.	32ddd#
4B	4d	8ee	32eee
.	.	.	32ddd
.	.	.	32ccc
.	.	.	32ddd
.	.	8ee	32ccc
.	.	.	32bb
.	.	.	32aa
.	.	.	32gg
=77	=77	=77	=77
4A	4c	8ee	32gg
.	.	.	32ff
.	.	.	32ee
.	.	.	32ff
.	.	8f	32ee
.	.	.	32ff
.	.	.	32ee
.	.	.	32ff
4B	4d	8f	32ff
.	.	.	32bb
.	.	.	32ddd
.	.	.	32ccc
.	.	8dd	32bb
.	.	.	32ddd
.	.	.	32fff
.	.	.	32eee
4G	4B	8ff	32ddd
.	.	.	32ccc
.	.	.	32bb
.	.	.	32ccc
.	.	8dd	32bb
.	.	.	32aa
.	.	.	32gg
.	.	.	32ff
=78	=78	=78	=78
8r	8r	8r	16ff
.	.	.	16ee
8C	8c	8g	[2ee
8c	8g	8cc	.
8c	8g	8cc	.
8c	8g	8cc	.
8c	8g	8cc	8ee]
=79	=79	=79	=79
8r	8r	8r	2.ee-
8AA-	8c	8a-	.
8A-	8a-	8cc	.
8A-	8a-	8cc	.
8A-	8a-	8cc	.
8A-	8a-	8cc	.
=80	=80	=80	=80
8F	8f	8a-	16.dd
.	.	.	96ee-
.	.	.	96dd
.	.	.	96cc
4.r	4.r	4.r	16.dd
.	.	.	32ee-
.	.	.	8ff
.	.	.	8r
8G	8d	8f	8b
8r	8r	8r	8r
=81	=81	=81	=81
4C	4c	4e-	4cc
2r	2r	8r	2r
.	.	8g	.
.	.	8g	.
.	.	8g	.
=82	=82	=82	=82
2BB	4.r	24g	2.r
.	.	24f#	.
.	.	24d	.
.	.	24g	.
.	.	24f#	.
.	.	24d	.
.	.	24g	.
.	.	24f	.
.	.	24d	.
.	8G	24g	.
.	.	24f	.
.	.	24d	.
4C	8G	24e-	.
.	.	24g	.
.	.	24f	.
.	8G	24e-	.
.	.	24d	.
.	.	24c	.
=83	=83	=83	=83
[2.GG	24G	8B	4.r
.	24F#	.	.
.	24D	.	.
.	24G	8d	.
.	24F#	.	.
.	24D	.	.
.	24G	8r	.
.	24F	.	.
.	24D	.	.
.	24G	8B	8gg
.	24F	.	.
.	24D	.	.
.	24E-	8.c	8gg
.	24G	.	.
.	24F	.	.
.	24E-	.	8gg
.	24D	.	.
.	.	32d	.
.	24C	.	.
.	.	32e-	.
=84	=84	=84	=84
4GG]	4G	2d 2B	24gg
.	.	.	24ff#
.	.	.	24dd
.	.	.	24gg
.	.	.	24ff#
.	.	.	24dd
8r	8r	.	24gg
.	.	.	24ff
.	.	.	24dd
8G	8g	.	24gg
.	.	.	24ff
.	.	.	24dd
8G	8g	4e- 4c	24ee-
.	.	.	24gg
.	.	.	24ff
8G	8g	.	24ee-
.	.	.	24dd
.	.	.	24cc
=85	=85	=85	=85
24G	24g	24g	24g
24F#	24f#	24f#	24f#
24D	24d	24d	24d
24G	24g	24g	24g
24F#	24f#	24f#	24f#
24D	24d	24d	24d
24G	24g	24g	24g
24F	24f	24f	24f
24D	24d	24d	24d
24G	24g	24g	24g
24F	24f	24f	24f
24D	24d	24d	24d
24E-	24e-	24e-	24e-
24G	24g	24g	24g
24F	24f	24f	24f
24E-	24e-	24e-	24e-
24D	24d	24d	24d
24C	24c	24c	24c
=86	=86	=86	=86
8.F#	8.f#	8.f#	8.f#
16G	16g	16g	16g
4GG	4G	4G	4G
4r	4r	4r	8.G
.	.	.	16G
=87	=87	=87	=87
8r	8r	8r	8G
8EE	4C	4G	8c
8EE	.	.	8r
8EE	4C	4G	8c
8EE	.	.	8e
8EE	8C	8G	8c
=88	=88	=88	=88
8r	8r	8r	4B
8FF	4C	4c	.
8FF	.	.	8A
8FF	4F	4c	8r
8FF	.	.	8.A
8FF	8E	8c#	.
.	.	.	16A
=89	=89	=89	=89
8r	8r	8r	8.A
8FF	4.D	4d	.
.	.	.	32B
.	.	.	32c#
8FF	.	.	32e
.	.	.	32d
.	.	.	32f
.	.	.	32e
8FF	.	4A	32g
.	.	.	32f
.	.	.	32a
.	.	.	32g
8DD	8F	.	32b-
.	.	.	32a
.	.	.	32g
.	.	.	32f
8DD	8F	8A	32e
.	.	.	32d
.	.	.	32f
.	.	.	32d
=90	=90	=90	=90
8r	8r	8r	8.c
8GG	4D	4G	.
.	.	.	32d
.	.	.	32c
8GG	.	.	8B
8GG	4D	4B	8r
8FF	.	.	8.g
8F	8B	8d	.
.	.	.	16g
=91	=91	=91	=91
8r	8r	8r	16g
.	.	.	16cc
8E	8c	8e	16r
.	.	.	16g
8r	8r	8r	16g
.	.	.	16dd
8D	8B	8f	16r
.	.	.	16g
8r	8r	8r	16g
.	.	.	16ee
8C	8c	8e	16r
.	.	.	16g
=92	=92	=92	=92
2.BB	2.d 2.G	2.f 2.G	16r
.	.	.	16g
.	.	.	16gg
.	.	.	16ff
.	.	.	16dd
.	.	.	16b
.	.	.	16g
.	.	.	16f
.	.	.	16d
.	.	.	16B
.	.	.	16G
.	.	.	16gg
=93	=93	=93	=93
8r	8r	8r	16gg
.	.	.	8ccc
8e	8g	8gg	.
.	.	.	8gg
16d	16b	16ff	.
16r	16r	16r	8ddd
8d	8b	8ff	.
.	.	.	8gg
16c	16cc	16ee	.
16r	16r	16r	8eee
8c	8cc	8ee	.
.	.	.	[16gg
=94	=94	=94	=94
16B	16g	16dd	16gg]
2r	2r	2r	32fff
.	.	.	32eee
.	.	.	32ggg
.	.	.	32fff
.	.	.	32eee
.	.	.	32ddd
.	.	.	32ccc
.	.	.	32bb
.	.	.	32ddd
.	.	.	32ccc
.	.	.	32eee
.	.	.	32ddd
.	.	.	32ccc
.	.	.	32bb
.	.	.	32aa
.	.	.	32gg
8.r	8.r	8.r	32bb
.	.	.	32aa
.	.	.	32gg
.	.	.	32ff
.	.	.	32ee
.	.	.	32dd
=95	=95	=95	=95
8C	8e	8b-	[2.cc
8C	8e	8b-	.
8F	8f	8a-	.
8F	8f	8a-	.
8E-	8c	8g	.
8E-	8c	8g	.
=96	=96	=96	=96
8D	8d	8f#	4cc]
8D	8d	8f#	.
8GG#	8d	8f	8.b
8GG#	8d	8f	.
.	.	.	32a
.	.	.	32b
8AA	8c	8e	4cc
8AA	8c	8e	.
=97	=97	=97	=97
8r	8r	8r	16cc#
.	.	.	8dd
8F	8c	8a	.
.	.	.	32ee
.	.	.	32ff
8r	8r	8r	16aa
.	.	.	8gg
8G	8c	8e	.
.	.	.	32ff
.	.	.	32ee
8r	8r	8r	16ee
.	.	.	8dd
8G	8d	8f	.
.	.	.	32cc
.	.	.	32b
=98	=98	=98	=98
8c	8c	8e	8cc
8G	8g	16.b	16.dd
.	.	64cc	64ee
.	.	64dd	64ff
8C	8g	8cc	8ee
4r	4.r	16.dd	16.ff
.	.	64ee	64gg
.	.	64ff	64aa
.	.	8ee	8gg
16.GG	.	8r	8r
64AA	.	.	.
64BB	.	.	.
=99	=99	=99	=99
8C	8r	4.r	3..r
8C	16.D	.	.
.	64E	.	.
.	64F#	.	.
8BB	8G	.	.
8BB	8.F	16.G	.
.	.	64A	.
.	.	64B	.
8BB-	.	[4c	.
.	16E	.	.
.	.	.	24r
8BB-	16D	.	16.c
.	16C	.	.
.	.	.	64d
.	.	.	64e
=100	=100	=100	=100
8AA	8C	8c]	8.f
8A	8c	8f	.
.	.	.	48g
.	.	.	48a
.	.	.	48b-
8G	8B-	8e	8.cc
8G	4c	8b-	.
.	.	.	32dd
.	.	.	32ee
8F	.	8a	8.ff
8r	8r	8r	.
.	.	.	48gg
.	.	.	48aa
.	.	.	48bb
=101	=101	=101	=101
8F	8a	8dd	16ccc
.	.	.	16ccc
8r	8r	8r	16aa
.	.	.	16ff
8G	8g	8cc	16ee
.	.	.	16aa
8r	8r	8r	16gg
.	.	.	16ee
8GG	8f	8b	16dd
.	.	.	16gg
8r	8r	8r	16ff
.	.	.	16dd
=102	=102	=102	=102
24CC	8e	8cc	8cc
24EE	.	.	.
24FF	.	.	.
24GG	6r	4r	16.ccc
24AA	.	.	.
24BB	.	.	.
.	.	.	64bb
.	.	.	64aa
8C	.	.	6..gg
.	24E	.	.
.	24F	.	.
8r	24G	16.cc	.
.	24A	.	.
.	24B	.	.
.	.	64b	.
.	.	64a	.
8r	24c	[4g	.
.	24d	.	24ff
.	24e	.	24ee
16.GG	8f	.	24dd
.	.	.	24cc
.	.	.	24dd
64AA	.	.	.
64BB	.	.	.
=103	=103	=103	=103
24C	8e	8g]	8cc
24E	.	.	.
24F	.	.	.
24G	6r	16.cc	2r
24A	.	.	.
24B	.	.	.
.	.	64b	.
.	.	64a	.
24c	.	6..g	.
24e	24c	.	.
24d	24B	.	.
24c	24A	.	.
24B	24G	.	.
24A	24F	.	.
8G	8E	.	.
.	.	24f	.
.	.	24e	.
8GG	8F	24d	16.gg
.	.	24c	.
.	.	24d	.
.	.	.	64aa
.	.	.	64bb
=104	=104	=104	=104
4CC	24E	24c	4ccc
.	24c	24e	.
.	24d	24f	.
.	24e	24g	.
.	24f	24a	.
.	24d	24b	.
4r	24e	24cc	4r
.	24g	24ee	.
.	24f	24dd	.
.	24e	24cc	.
.	24d	24b	.
.	24e	24cc	.
4G	24d	24b	8.bb
.	24b	24dd	.
.	24dd	24ff	.
.	24ff	24aa	.
.	24ee	24gg	.
.	.	.	32aa
.	24dd	24ff	.
.	.	.	32bb
=105	=105	=105	=105
8c	24cc	24ee	8ccc
.	24ee	24gg	.
.	24dd	24ff	.
4.r	24cc	24ee	4.r
.	24g	24ee	.
.	24f	24dd	.
.	24e	24cc	.
.	24g	24b	.
.	24f	24a	.
.	24e	24g	.
.	24d	24f	.
.	24c	24e	.
4G	4B	4d	24ff
.	.	.	24dd
.	.	.	24b
.	.	.	24g
.	.	.	24a
.	.	.	24f
=106	=106	=106	=106
4C	4B	4d	4f [4G
8CC	8c	8c	8e 8G]
4.r	4.r	4.r	4.r
==	==	==	==
*-	*-	*-	*-
!!!RWG1: This file contains only pitch and duration data.
!!!RWG2: Transposing instruments are not transposed.
!!!RWG3: Spines may have incompatible meters.
!!!RWG4: Durations of rests and tied notes may be interpreted.
!!!RWG: Key is interpreted using the Humdrum key tool.
!!!AFT: stage1
!!!END: 1997/04/15
!!!KEY: 2579609672
!!!EMD: Converted from MuseData to Humdrum Dec 16, 2000, by Andreas Kornstaedt using muse2kern.
!!!EMD: Manual editing by Craig Sapp, Nov 2001
